X:1891
T:Farewell to Milltown
O:england
C:Junior Crehan
R:reel
M:C|
K:Gdor
DGGF ~G3A|BdcA GFDE|F2cF dFcF|AdcA GFDC|
DGGF ~G3A|BdcA GFDE|F2cF dFcF|1 AdcA ~G3F:|2 AdcA ~G3c||
|:dggf ~g3a|bggf gfde|f2eg fc~c2|fcgc agfe|
dggf ~g3a|bggf gfde|f2eg fdcA|1 BGAF ~G3c:|2 BGAF ~G3F||
